X:1
T:Title
T:Interstellar
T:Composed by Hans Zimmer Arranged by Pattrik Pietschmann and Paul Schade
C:Composer
%%score { ( 1 3 ) | 2 }
L:1/8
Q:1/4=110
M:3/4
K:C
V:1 treble nm="Piano" snm="Pno."
V:3 treble 
V:2 bass 
V:1
"^Main Theme""^Lento Violento""^\n"!<(! E2 E2 E2!<)! | E2 E2 E2 | E2 E2 E2 | E2 E2 E2 ||!mf! A6 | %5
 B6- | B6 | A2 B2 c2 | B2 A2 B2 | c6 | B6- | B6 | A4 e2 | c6 | B6- | B6 | A2 e2 c2 | B2 A2 B2 | %18
 c6 | B6- | B6 | A2 e2 c2 | B2 A2 B2 | c6 | d6 |!>(! e6-!>)! | e6 || AB cB Ac | BA GA BG | %29
 BA GA BG | Ac Bd cA | BG Ac Bd | cd cB Ac | BA GA BG | BA G!>!e BG || AB cB Ac | BA GA BG | %37
 BA GA BG | Ac Bd cA | BG Ac Bd | cd cB Ac | BA GA BG | BA G!>!e BG |!>(! e2 e2 e2!>)! | e2 e2 e2 | %45
!<(! e2 e2 e2!<)! | e2 e2 e2 |!f! A2 e2 z2 | A2 e2 z2 | B2 e2 z2 | B2 e2 z2 | c2 e2 z2 | c2 e2 z2 | %53
 d2 e2 z2 | d2 e2 B2 | A2 e2 z2 | A2 e2 z2 | B2 e2 z2 | B2 e2 z2 | c2 e2 z2 | c2 e2 z2 | d2 e2 z2 | %62
 d2 e2 B2 || Ae ee z e | Ae ee z e | Be ee z e | Be ee z e | ce ee z e | ce ee z e | de ee z e | %70
 de ee B2 |!>(! A6-!>)! | A6 |!p! B6 | c6 ||!f! A2 e4 | A2 e4 | B2 e4 | B2 e4 | c2 e4 | c2 e4 | %81
 d2 e4 | d2 e2 B2 | [Aa]2 [ee']4 | [Aa]2 [ee']4 | [Bb]2 [ee']4 | [Bb]2 [ee']4 | [cc']2 [ee']4 | %88
 [cc']2 [ee']4 | [dd']2 [ee']4 | [dd']2 [ee']2 [Bb]2 || e6- | e6 |!>(! x6!>)! | x6 |] %95
V:2
 z6 | z6 | z6 | z6 ||!mf! A,6 | B,6- | B,6 | A,2 B,2 C2 | B,2 A,2 B,2 | C6 | B,6- | B,6 | A,4 z2 | %13
 C6 | B,6- | B,6 | A,4 C2 | B,2 A,2 B,2 | C6 | B,6- | B,6 | A,4 C2 | B,2 A,2 B,2 | C6 | D6 | z6 | %26
 z6 || A,6 | B,6- | B,6 | A,2 B,2 C2 | B,2 A,2 B,2 | C6 | B,6- | B,6 || A,6 | B,6- | B,6 | %38
 A,2 B,2 C2 | B,2 A,2 B,2 | C6 | B,6 | B,3 E3 |!>(! E E2 E2 E-!>)! | E E2 E2 E | %45
!<(!!<(! E2 E2 E2!<)!!<)! | E2 E2 E2 |!f! F,6- | F,6 | G,6- | G,6 | A,6- | A,6 | G,6- | G,4 B,2 | %55
 A,2 A,2 E,2 | A,2 A,2 E,2 | G,2 G,2 E,2 | G,2 G,2 E,2 | A,2 A,2 E,2 | A,2 A,2 E,2 | G,2 G,2 E,2 | %62
 G,2 G,2 E,2 || A,2 A,2 E,2 | A,2 A,2 E,2 | G,2 G,2 E,2 | G,2 G,2 E,2 | A,2 A,2 E,2 | A,2 A,2 E,2 | %69
 G,2 G,2 E,2 | G,2 G,2 E,2 |!>(! A,,6-!>)! | A,,6 |!p!!<(!!<(! B,,2 C,2 D,2!<)!!<)! | %74
 C,2 D,2 E,2 ||!f!!<(! (3E,,A,,C, (3!>!E,!>(!C,A,, (3E,C,A,,!<)!!>)! | %76
!<(! (3E,,A,,C, (3!>!E,!>(!C,A,, (3E,C,A,,!<)!!>)! | %77
!<(! (3E,,A,,C, (3!>!E,!>(!C,A,, (3E,C,A,,!<)!!>)! | %78
!<(! (3E,,A,,C, (3!>!E,!>(!C,A,, (3E,C,A,,!<)!!>)! | %79
!<(! (3E,,A,,C, (3!>!E,!>(!C,A,, (3E,C,A,,!<)!!>)! | %80
!<(! (3E,,A,,C, (3!>!E,!>(!C,A,, (3E,C,A,,!<)!!>)! | %81
!<(! (3E,,A,,C, (3!>!E,!>(!C,A,, (3E,C,A,,!<)!!>)! | %82
!<(! (3E,,A,,C, (3!>!E,!>(!C,A,, (3D,B,,G,,!<)!!>)! | %83
!<(! (3E,,A,,C, (3!>!E,!>(!C,A,, (3E,C,A,,!<)!!>)! | %84
!<(! (3E,,A,,C, (3!>!E,!>(!C,A,, (3E,C,A,,!<)!!>)! | %85
!<(! (3E,,A,,C, (3!>!E,!>(!C,A,, (3E,C,A,,!<)!!>)! | %86
!<(! (3E,,A,,C, (3!>!E,!>(!C,A,, (3E,C,A,,!<)!!>)! | %87
!<(! (3E,,A,,C, (3!>!E,!>(!C,A,, (3E,C,A,,!<)!!>)! | %88
!<(! (3E,,A,,C, (3!>!E,!>(!C,A,, (3E,C,A,,!<)!!>)! | %89
!<(! (3E,,A,,C, (3!>!E,!>(!C,A,, (3E,C,A,,!<)!!>)! | %90
!<(! (3E,,A,,C, (3!>!E,!>(!C,A,, (3D,B,,G,,!<)!!>)! || E,,6- | E,,6 | z6 | z6 |] %95
V:3
 x6 | x6 | x6 | x6 || E2 E2 E2 | E2 E2 E2 | E2 E2 E2 | E2 E2 E2 | E2 E2 E2 | E2 E2 E2 | E2 E2 E2 | %11
 E2 E2 E2 | E2 E2 E2 | E2 E2 E2 | E2 E2 E2 | E2 E2 E2 | E2 E2 E2 | E2 E2 E2 | E2 E2 E2 | E2 E2 E2 | %20
 E2 E2 E2 | E2 E2 E2 | E2 E2 E2 | E2 E2 E2 | E2 E2 E2 | E2 E2 E2 | E2 E2 E2 || E2 E2 E2 | %28
 E2 E2 E2 | E2 E2 E2 | E2 E2 E2 | E2 E2 E2 | E2 E2 E2 | E2 E2 E2 | E2 E2 E2 || z/ EEEEEE/- | %36
 E/EEEEEE/- | E/EEEEEE/- | E/EEEEEE/- | E/EEEEEE/- | E/EEEEEE/- | E/EEEEEE/- | E/EEEEEE/ | x6 | %44
 x6 | x6 | x6 | E2 E2 E2 | E2 E2 E2 | E2 E2 E2 | E2 E2 E2 | E2 E2 E2 | E2 E2 E2 | E2 E2 E2 | %54
 E2 E2 E2 | E2 E2 E2 | E2 E2 E2 | E2 E2 E2 | E2 E2 E2 | E2 E2 E2 | E2 E2 E2 | E2 E2 E2 | %62
 E2 E2 E2 || E2 E2 E2 | E2 E2 E2 | E2 E2 E2 | E2 E2 E2 | E2 E2 E2 | E2 E2 E2 | E2 E2 E2 | %70
 E2 E2 E2 | E2 E2 E2 | E2 E2 E2 | EE EE EE | EE EE EE || E6 | E6 | E6 | E6 | E6 | E6 | E6 | E6 | %83
 x6 | x6 | x6 | x6 | x6 | x6 | x6 | x6 || E2 E2 E2 | E2 E2 E2 | E2 E2 E2 | E2 E2 E2 |] %95

